src/pos-icons/virus-outline.svg

<svg height="24" viewBox="0 0 24 24" width="24" xmlns="http://www.w3.org/2000/svg"><path d="m12 .5c-.97 0-1.75.78-1.75 1.75 0 .59.3 1.12.75 1.43v1.4c-.9.13-1.74.42-2.5.86l-1.11-1.59c.19-.52.14-1.12-.2-1.6-.35-.49-.89-.75-1.44-.75-.35 0-.7.1-1 .32-.79.55-.99 1.64-.43 2.43.34.49.88.75 1.43.75l1.18 1.68c-.43.43-.77.91-1.06 1.44-.2-.08-.41-.12-.62-.12-.45 0-.9.17-1.25.5-.67.7-.67 1.8 0 2.5.29.27.64.42 1 .5 0 .54.07 1.06.18 1.56l-1.31.35c-.31-.26-.71-.41-1.12-.41-.15 0-.31 0-.46.06-.93.25-1.481 1.21-1.23 2.15.21.79.94 1.29 1.69 1.29.15 0 .3 0 .46-.06.57-.16 1-.58 1.18-1.1l1.51-.41c.45.79 1.05 1.49 1.75 2.07l-1.1 2c-.55.08-1.05.39-1.34.92-.46.85-.14 1.91.71 2.37.26.14.55.21.83.21.62 0 1.22-.33 1.54-.92.28-.52.27-1.12.02-1.61l1.07-1.97c.81.32 1.69.5 2.62.5h.18c-.13.26-.18.56-.18.88.08.92.84 1.62 1.75 1.62h.13c.97-.08 1.69-.92 1.62-1.88-.04-.5-.29-.94-.65-1.23.47-.21.92-.48 1.34-.79l2.34 2.34c-.1.56.06 1.13.47 1.56.35.33.8.5 1.25.5s.9-.17 1.25-.5c.67-.7.67-1.8 0-2.5-.35-.33-.8-.5-1.25-.5-.1 0-.2 0-.31.03l-2.34-2.34c.49-.65.87-1.39 1.11-2.19h1.11c.31.45.84.75 1.43.75.97 0 1.75-.78 1.75-1.75s-.78-1.75-1.75-1.75c-.59 0-1.12.3-1.43.75h-.82c0-1.57-.5-3-1.4-4.19l1.34-1.34c.11.03.21.03.31.03.45 0 .9-.17 1.25-.5.67-.69.67-1.8 0-2.5-.35-.33-.8-.5-1.25-.5s-.9.17-1.25.5c-.41.43-.57 1-.47 1.56l-1.34 1.34c-.92-.69-2-1.15-3.19-1.32v-1.4c.45-.31.75-.84.75-1.43 0-.97-.78-1.75-1.75-1.75m0 16.5c-2.76 0-5-2.24-5-5s2.24-5 5-5 5 2.24 5 5-2.24 5-5 5m-1.5-8c-.83 0-1.5.67-1.5 1.5s.67 1.5 1.5 1.5 1.5-.67 1.5-1.5-.67-1.5-1.5-1.5m3.5 4c-.55 0-1 .45-1 1s.45 1 1 1 1-.45 1-1-.45-1-1-1z"/></svg>

<?xml version="1.0" encoding="UTF-8"?><!DOCTYPE svg PUBLIC "-//W3C//DTD SVG 1.1//EN" "http://www.w3.org/Graphics/SVG/1.1/DTD/svg11.dtd"><svg xmlns="http://www.w3.org/2000/svg" xmlns:xlink="http://www.w3.org/1999/xlink" version="1.1" id="mdi-virus-outline" width="24" height="24" viewBox="0 0 24 24"><path d="M12 .5C11.03 .5 10.25 1.28 10.25 2.25C10.25 2.84 10.55 3.37 11 3.68V5.08C10.1 5.21 9.26 5.5 8.5 5.94L7.39 4.35C7.58 3.83 7.53 3.23 7.19 2.75C6.84 2.26 6.3 2 5.75 2C5.4 2 5.05 2.1 4.75 2.32C3.96 2.87 3.76 3.96 4.32 4.75C4.66 5.24 5.2 5.5 5.75 5.5L6.93 7.18C6.5 7.61 6.16 8.09 5.87 8.62C5.67 8.54 5.46 8.5 5.25 8.5C4.8 8.5 4.35 8.67 4 9C3.33 9.7 3.33 10.8 4 11.5C4.29 11.77 4.64 11.92 5 12L5 12C5 12.54 5.07 13.06 5.18 13.56L3.87 13.91C3.56 13.65 3.16 13.5 2.75 13.5C2.6 13.5 2.44 13.5 2.29 13.56C1.36 13.81 .809 14.77 1.06 15.71C1.27 16.5 2 17 2.75 17C2.9 17 3.05 17 3.21 16.94C3.78 16.78 4.21 16.36 4.39 15.84L5.9 15.43C6.35 16.22 6.95 16.92 7.65 17.5L6.55 19.5C6 19.58 5.5 19.89 5.21 20.42C4.75 21.27 5.07 22.33 5.92 22.79C6.18 22.93 6.47 23 6.75 23C7.37 23 7.97 22.67 8.29 22.08C8.57 21.56 8.56 20.96 8.31 20.47L9.38 18.5C10.19 18.82 11.07 19 12 19C12.06 19 12.12 19 12.18 19C12.05 19.26 12 19.56 12 19.88C12.08 20.8 12.84 21.5 13.75 21.5C13.79 21.5 13.84 21.5 13.88 21.5C14.85 21.42 15.57 20.58 15.5 19.62C15.46 19.12 15.21 18.68 14.85 18.39C15.32 18.18 15.77 17.91 16.19 17.6L18.53 19.94C18.43 20.5 18.59 21.07 19 21.5C19.35 21.83 19.8 22 20.25 22S21.15 21.83 21.5 21.5C22.17 20.8 22.17 19.7 21.5 19C21.15 18.67 20.7 18.5 20.25 18.5C20.15 18.5 20.05 18.5 19.94 18.53L17.6 16.19C18.09 15.54 18.47 14.8 18.71 14H19.82C20.13 14.45 20.66 14.75 21.25 14.75C22.22 14.75 23 13.97 23 13S22.22 11.25 21.25 11.25C20.66 11.25 20.13 11.55 19.82 12H19C19 10.43 18.5 9 17.6 7.81L18.94 6.47C19.05 6.5 19.15 6.5 19.25 6.5C19.7 6.5 20.15 6.33 20.5 6C21.17 5.31 21.17 4.2 20.5 3.5C20.15 3.17 19.7 3 19.25 3S18.35 3.17 18 3.5C17.59 3.93 17.43 4.5 17.53 5.06L16.19 6.4C15.27 5.71 14.19 5.25 13 5.08V3.68C13.45 3.37 13.75 2.84 13.75 2.25C13.75 1.28 12.97 .5 12 .5M12 17C9.24 17 7 14.76 7 12S9.24 7 12 7 17 9.24 17 12 14.76 17 12 17M10.5 9C9.67 9 9 9.67 9 10.5S9.67 12 10.5 12 12 11.33 12 10.5 11.33 9 10.5 9M14 13C13.45 13 13 13.45 13 14C13 14.55 13.45 15 14 15C14.55 15 15 14.55 15 14C15 13.45 14.55 13 14 13Z" /></svg>
